;FLAVOR:Marlin
;TIME:21935
;Filament used: 22.8185m
;Layer height: 0.2
;MINX:57
;MINY:106
;MINZ:0.2
;MAXX:243
;MAXY:194
;MAXZ:15.2
;Generated with Cura_SteamEngine 4.4.1
M140 S60
M105
M190 S60
M104 S180
M105
M109 S180
M82 ;absolute extrusion mode
M201 X500.00 Y500.00 Z100.00 E5000.00 ;Setup machine max acceleration
M203 X500.00 Y500.00 Z10.00 E50.00 ;Setup machine max feedrate
M204 P500.00 R1000.00 T500.00 ;Setup Print/Retract/Travel acceleration
M205 X8.00 Y8.00 Z0.40 E5.00 ;Setup Jerk
M220 S100 ;Reset Feedrate
M221 S100 ;Reset Flowrate

G28 ;Home
M420 S1 Z2 ;Enable ABL using saved Mesh and Fade Height

G92 E0 ;Reset Extruder
G1 Z2.0 F3000 ;Move Z Axis up
G1 X10.1 Y20 Z0.28 F5000.0 ;Move to start position
G1 X10.1 Y200.0 Z0.28 F1500.0 E15 ;Draw the first line
G1 X10.4 Y200.0 Z0.28 F5000.0 ;Move to side a little
G1 X10.4 Y20 Z0.28 F1500.0 E30 ;Draw the second line
G92 E0 ;Reset Extruder
G1 Z2.0 F3000 ;Move Z Axis up

G92 E0
G92 E0
G1 F1500 E-1.4
;LAYER_COUNT:75
;LAYER:0
M107
G1 F300 Z0.4
G0 F6000 X66.8 Y109.249 Z0.4
;TYPE:SKIRT
G1 F300 Z0.2
G1 F1500 E0
G1 F1200 X67.107 Y109.061 E0.01197
G1 X67.354 Y108.915 E0.02152
G1 X67.756 Y108.683 E0.03695
G1 X68.264 Y108.407 E0.05618
G1 X68.598 Y108.237 E0.06865
G1 X68.878 Y108.099 E0.07903
G1 X69.279 Y107.909 E0.09379
G1 X69.816 Y107.672 E0.11331
G1 X70.177 Y107.524 E0.12629
G1 X70.51 Y107.394 E0.13818
G1 X70.918 Y107.242 E0.15266
G1 X71.464 Y107.055 E0.17186
G1 X71.824 Y106.942 E0.1844
G1 X72.127 Y106.851 E0.19493
G1 X72.534 Y106.736 E0.20899
G1 X73.054 Y106.603 E0.22685
G1 X73.44 Y106.514 E0.24002
G1 X73.811 Y106.435 E0.25264
G1 X74.248 Y106.35 E0.26744
G1 X74.813 Y106.256 E0.28649
G1 X75.175 Y106.205 E0.29865
G1 X75.505 Y106.163 E0.30972
G1 X75.977 Y106.111 E0.32551
G1 X76.912 Y106.048 E0.35668
G1 X78.746 Y106.003 E0.4177
G1 X79.016 Y106 E0.42668
G1 X220.95 Y106 E5.14742
G1 X221.175 Y106.002 E5.15491
G1 X222.885 Y106.037 E5.21179
G1 X223.333 Y106.056 E5.22671
G1 X223.545 Y106.069 E5.23377
G1 X224.083 Y106.115 E5.25173
G1 X224.417 Y106.152 E5.26291
G1 X224.719 Y106.19 E5.27303
G1 X225.151 Y106.25 E5.28754
G1 X225.71 Y106.342 E5.30638
G1 X226.101 Y106.417 E5.31962
G1 X226.435 Y106.486 E5.33097
G1 X226.841 Y106.577 E5.3448
G1 X227.388 Y106.715 E5.36357
G1 X227.772 Y106.822 E5.37683
G1 X228.106 Y106.921 E5.38841
G1 X228.518 Y107.05 E5.40277
G1 X228.995 Y107.211 E5.41952
G1 X229.352 Y107.341 E5.43215
G1 X229.738 Y107.49 E5.44591
G1 X230.143 Y107.655 E5.46046
G1 X230.678 Y107.89 E5.4799
G1 X231.054 Y108.067 E5.49372
G1 X231.342 Y108.207 E5.50437
G1 X231.709 Y108.393 E5.51805
G1 X232.163 Y108.637 E5.5352
G1 X232.498 Y108.827 E5.54801
G1 X232.844 Y109.032 E5.56138
G1 X233.243 Y109.278 E5.57697
G1 X233.698 Y109.574 E5.59503
G1 X233.995 Y109.778 E5.60701
G1 X234.299 Y109.994 E5.61941
G1 X234.673 Y110.27 E5.63487
G1 X235.082 Y110.588 E5.6521
G1 X235.35 Y110.806 E5.66359
G1 X235.64 Y111.05 E5.6762
G1 X236.016 Y111.378 E5.6928
G1 X236.456 Y111.783 E5.71269
G1 X236.715 Y112.035 E5.7247
G1 X236.933 Y112.254 E5.73498
G1 X237.241 Y112.571 E5.74968
G1 X237.639 Y113.003 E5.76922
G1 X237.886 Y113.286 E5.78171
G1 X238.099 Y113.537 E5.79266
G1 X238.375 Y113.873 E5.80712
G1 X238.675 Y114.255 E5.82328
G1 X238.897 Y114.551 E5.83559
G1 X239.142 Y114.891 E5.84952
G1 X239.405 Y115.271 E5.8649
G1 X239.73 Y115.769 E5.88467
G1 X239.936 Y116.104 E5.89775
G1 X240.094 Y116.369 E5.90802
G1 X240.319 Y116.759 E5.92299
G1 X240.579 Y117.237 E5.94109
G1 X240.739 Y117.549 E5.95275
G1 X240.893 Y117.861 E5.96432
G1 X241.089 Y118.275 E5.97956
G1 X241.324 Y118.806 E5.99887
G1 X241.475 Y119.174 E6.0121
G1 X241.602 Y119.499 E6.02371
G1 X241.753 Y119.903 E6.03805
G1 X241.943 Y120.457 E6.05753
G1 X242.058 Y120.823 E6.07029
G1 X242.15 Y121.129 E6.08092
G1 X242.265 Y121.536 E6.09499
G1 X242.4 Y122.065 E6.11315
G1 X242.493 Y122.47 E6.12697
G1 X242.57 Y122.835 E6.13937
G1 X242.65 Y123.247 E6.15333
G1 X242.744 Y123.804 E6.17212
G1 X242.801 Y124.207 E6.18566
G1 X242.84 Y124.517 E6.19605
G1 X242.885 Y124.917 E6.20944
G1 X242.951 Y125.881 E6.24158
G1 X242.997 Y127.784 E6.30489
G1 X243 Y128.05 E6.31374
G1 X243 Y146.587 E6.93028
G1 X242.999 Y146.744 E6.9355
G1 X242.971 Y148.702 E7.00063
G1 X242.971 Y151.377 E7.0896
G1 X242.999 Y153.346 E7.1551
G1 X243 Y153.503 E7.16032
G1 X243 Y171.95 E7.77387
G1 X242.998 Y172.175 E7.78135
G1 X242.963 Y173.884 E7.83821
G1 X242.919 Y174.66 E7.86406
G1 X242.869 Y175.207 E7.88233
G1 X242.81 Y175.719 E7.89947
G1 X242.75 Y176.151 E7.91397
G1 X242.658 Y176.71 E7.93282
G1 X242.583 Y177.101 E7.94606
G1 X242.514 Y177.435 E7.9574
G1 X242.423 Y177.841 E7.97124
G1 X242.286 Y178.386 E7.98993
G1 X242.181 Y178.763 E8.00295
G1 X242.084 Y179.09 E8.01429
G1 X241.951 Y179.516 E8.02914
G1 X241.782 Y180.016 E8.04669
G1 X241.654 Y180.366 E8.05909
G1 X241.51 Y180.738 E8.07235
G1 X241.345 Y181.143 E8.0869
G1 X241.116 Y181.665 E8.10586
G1 X240.941 Y182.038 E8.11956
G1 X240.79 Y182.348 E8.13103
G1 X240.598 Y182.726 E8.14513
G1 X240.356 Y183.176 E8.16212
G1 X240.172 Y183.5 E8.17452
G1 X239.973 Y183.837 E8.18753
G1 X239.726 Y184.238 E8.2032
G1 X239.42 Y184.707 E8.22182
G1 X239.221 Y184.996 E8.2335
G1 X239.011 Y185.291 E8.24554
G1 X238.729 Y185.673 E8.26133
G1 X238.425 Y186.066 E8.27786
G1 X238.207 Y186.335 E8.28937
G1 X237.956 Y186.633 E8.30233
G1 X237.639 Y186.997 E8.31839
G1 X237.238 Y187.434 E8.33811
G1 X236.975 Y187.705 E8.35067
G1 X236.746 Y187.933 E8.36142
G1 X236.429 Y188.241 E8.37612
G1 X235.997 Y188.639 E8.39566
G1 X235.714 Y188.886 E8.40815
G1 X235.463 Y189.099 E8.4191
G1 X235.127 Y189.375 E8.43356
G1 X234.745 Y189.675 E8.44972
G1 X234.449 Y189.897 E8.46202
G1 X234.104 Y190.145 E8.47616
G1 X233.725 Y190.407 E8.49148
G1 X233.24 Y190.724 E8.51075
G1 X232.904 Y190.931 E8.52388
G1 X232.631 Y191.094 E8.53445
G1 X232.241 Y191.319 E8.54943
G1 X231.746 Y191.588 E8.56817
G1 X231.413 Y191.758 E8.5806
G1 X231.106 Y191.909 E8.59198
G1 X230.714 Y192.094 E8.6064
G1 X230.185 Y192.327 E8.62562
G1 X229.816 Y192.478 E8.63888
G1 X229.51 Y192.598 E8.64982
G1 X229.099 Y192.752 E8.66441
G1 X228.542 Y192.943 E8.684
G1 X228.183 Y193.056 E8.69652
G1 X227.871 Y193.15 E8.70736
G1 X227.464 Y193.265 E8.72142
G1 X226.935 Y193.4 E8.73958
G1 X226.53 Y193.493 E8.7534
G1 X226.165 Y193.57 E8.76581
G1 X225.753 Y193.65 E8.77977
G1 X225.196 Y193.744 E8.79856
G1 X224.793 Y193.801 E8.81209
G1 X224.477 Y193.841 E8.82269
G1 X224.075 Y193.886 E8.83614
G1 X223.117 Y193.951 E8.86808
G1 X221.216 Y193.997 E8.93132
G1 X220.95 Y194 E8.94017
G1 X79.021 Y194 E13.66075
G1 X78.801 Y193.998 E13.66807
G1 X77.152 Y193.965 E13.72292
G1 X76.753 Y193.95 E13.7362
G1 X76.54 Y193.938 E13.7433
G1 X75.968 Y193.89 E13.76239
G1 X75.61 Y193.851 E13.77437
G1 X75.291 Y193.812 E13.78506
G1 X74.858 Y193.752 E13.7996
G1 X74.315 Y193.663 E13.8179
G1 X73.936 Y193.591 E13.83073
G1 X73.595 Y193.52 E13.84231
G1 X73.169 Y193.425 E13.85683
G1 X72.576 Y193.276 E13.87717
G1 X72.172 Y193.162 E13.89113
G1 X71.875 Y193.073 E13.90144
G1 X71.469 Y192.946 E13.91559
G1 X70.952 Y192.77 E13.93375
G1 X70.656 Y192.661 E13.94425
G1 X70.329 Y192.535 E13.9559
G1 X69.877 Y192.352 E13.97212
G1 X69.335 Y192.115 E13.9918
G1 X68.981 Y191.949 E14.0048
G1 X68.722 Y191.824 E14.01437
G1 X68.331 Y191.628 E14.02891
G1 X67.783 Y191.334 E14.0496
G1 X67.459 Y191.148 E14.06202
G1 X67.202 Y190.995 E14.07197
G1 X66.814 Y190.758 E14.08709
G1 X66.268 Y190.402 E14.10877
G1 X65.943 Y190.176 E14.12194
G1 X65.738 Y190.03 E14.13031
G1 X65.39 Y189.776 E14.14464
G1 X64.913 Y189.407 E14.1647
G1 X64.628 Y189.174 E14.17694
G1 X64.382 Y188.967 E14.18763
G1 X64.035 Y188.666 E14.20291
G1 X63.621 Y188.288 E14.22156
G1 X63.339 Y188.017 E14.23457
G1 X63.066 Y187.745 E14.24738
G1 X62.774 Y187.444 E14.26133
G1 X62.406 Y187.046 E14.27936
G1 X62.145 Y186.749 E14.29251
G1 X61.93 Y186.496 E14.30355
G1 X61.644 Y186.15 E14.31848
G1 X61.314 Y185.731 E14.33622
G1 X61.118 Y185.469 E14.34711
G1 X60.887 Y185.148 E14.36026
G1 X60.611 Y184.75 E14.37637
G1 X60.31 Y184.292 E14.3946
G1 X60.101 Y183.956 E14.40776
G1 X59.918 Y183.652 E14.41956
G1 X59.685 Y183.249 E14.43504
G1 X59.403 Y182.728 E14.45475
G1 X59.252 Y182.431 E14.46583
G1 X59.114 Y182.151 E14.47621
G1 X58.911 Y181.722 E14.492
G1 X58.676 Y181.188 E14.5114
G1 X58.526 Y180.822 E14.52456
G1 X58.397 Y180.494 E14.53628
G1 X58.246 Y180.089 E14.55066
G1 X58.06 Y179.548 E14.56968
G1 X57.953 Y179.208 E14.58154
G1 X57.864 Y178.909 E14.59191
G1 X57.736 Y178.458 E14.60751
G1 X57.614 Y177.989 E14.62363
G1 X57.538 Y177.668 E14.6346
G1 X57.442 Y177.224 E14.64971
G1 X57.352 Y176.759 E14.66546
G1 X57.263 Y176.225 E14.68346
G1 X57.207 Y175.833 E14.69663
G1 X57.163 Y175.486 E14.70827
G1 X57.113 Y175.034 E14.72339
G1 X57.05 Y174.123 E14.75377
G1 X57.004 Y172.424 E14.8103
G1 X57 Y172.126 E14.82021
G1 X57 Y153.389 E15.4434
G1 X57.001 Y153.235 E15.44853
G1 X57.027 Y151.377 E15.51033
G1 X57.031 Y151.214 E15.51575
G1 X57.04 Y150.885 E15.5267
G1 X57.03 Y147.679 E15.63333
G1 X57.002 Y146.305 E15.67904
G1 X57 Y146.078 E15.68659
G1 X57 Y128.047 E16.2863
G1 X57.002 Y127.822 E16.29379
G1 X57.037 Y126.112 E16.35067
G1 X57.057 Y125.634 E16.36659
G1 X57.073 Y125.384 E16.37492
G1 X57.118 Y124.872 E16.39201
G1 X57.147 Y124.611 E16.40075
G1 X57.182 Y124.328 E16.41023
G1 X57.247 Y123.855 E16.42611
G1 X57.348 Y123.248 E16.44658
G1 X57.425 Y122.853 E16.45996
G1 X57.49 Y122.543 E16.4705
G1 X57.578 Y122.152 E16.48383
G1 X57.712 Y121.621 E16.50204
G1 X57.819 Y121.236 E16.51533
G1 X57.919 Y120.895 E16.52715
G1 X58.053 Y120.467 E16.54207
G1 X58.223 Y119.968 E16.5596
G1 X58.348 Y119.627 E16.57168
G1 X58.489 Y119.263 E16.58467
G1 X58.654 Y118.858 E16.59921
G1 X58.889 Y118.323 E16.61865
G1 X59.066 Y117.947 E16.63247
G1 X59.206 Y117.66 E16.64309
G1 X59.396 Y117.285 E16.65707
G1 X59.647 Y116.818 E16.67471
G1 X59.833 Y116.491 E16.68722
G1 X60.024 Y116.168 E16.6997
G1 X60.27 Y115.768 E16.71532
G1 X60.583 Y115.288 E16.73438
G1 X60.787 Y114.992 E16.74633
G1 X60.996 Y114.698 E16.75833
G1 X61.273 Y114.323 E16.77384
G1 X61.596 Y113.907 E16.79135
G1 X61.817 Y113.636 E16.80299
G1 X62.046 Y113.365 E16.81479
G1 X62.369 Y112.994 E16.83115
G1 X62.785 Y112.542 E16.85158
G1 X63.047 Y112.273 E16.86407
G1 X63.25 Y112.07 E16.87362
G1 X63.563 Y111.765 E16.88815
G1 X64.035 Y111.331 E16.90948
G1 X64.313 Y111.09 E16.92172
G1 X64.536 Y110.902 E16.93142
G1 X64.872 Y110.626 E16.94588
G1 X65.249 Y110.33 E16.96182
G1 X65.522 Y110.125 E16.97318
G1 X65.842 Y109.893 E16.98632
G1 X66.26 Y109.602 E17.00326
G1 X66.8 Y109.249 E17.02472
G0 F6000 X67.009 Y109.59
G1 F1200 X67.316 Y109.402 E17.03669
G1 X67.554 Y109.261 E17.04589
G1 X67.956 Y109.029 E17.06133
G1 X68.446 Y108.763 E17.07988
G1 X68.78 Y108.593 E17.09234
G1 X69.049 Y108.461 E17.10231
G1 X69.45 Y108.271 E17.11707
G1 X69.968 Y108.042 E17.1359
G1 X70.329 Y107.894 E17.14888
G1 X70.649 Y107.769 E17.16031
G1 X71.057 Y107.617 E17.17479
G1 X71.583 Y107.437 E17.19328
G1 X71.943 Y107.324 E17.20583
G1 X72.236 Y107.236 E17.216
G1 X72.643 Y107.121 E17.23007
G1 X73.143 Y106.993 E17.24724
G1 X73.529 Y106.904 E17.26041
G1 X73.887 Y106.828 E17.27258
G1 X74.324 Y106.743 E17.28739
G1 X74.869 Y106.652 E17.30577
G1 X75.231 Y106.601 E17.31793
G1 X75.549 Y106.561 E17.32859
G1 X76.021 Y106.509 E17.34438
G1 X76.922 Y106.448 E17.37442
G1 X78.756 Y106.403 E17.43543
G1 X79.016 Y106.4 E17.44408
G1 X220.95 Y106.4 E22.16483
G1 X221.167 Y106.402 E22.17204
G1 X222.877 Y106.437 E22.22893
G1 X223.309 Y106.455 E22.24331
G1 X223.521 Y106.468 E22.25038
G1 X224.039 Y106.512 E22.26767
G1 X224.373 Y106.549 E22.27884
G1 X224.664 Y106.586 E22.2886
G1 X225.096 Y106.646 E22.30311
G1 X225.635 Y106.735 E22.32128
G1 X226.026 Y106.81 E22.33452
G1 X226.347 Y106.877 E22.34543
G1 X226.753 Y106.968 E22.35926
G1 X227.28 Y107.1 E22.37733
G1 X227.664 Y107.207 E22.39059
G1 X227.986 Y107.302 E22.40176
G1 X228.398 Y107.431 E22.41612
G1 X228.858 Y107.587 E22.43227
G1 X229.215 Y107.717 E22.44491
G1 X229.587 Y107.86 E22.45817
G1 X229.992 Y108.025 E22.47271
G1 X230.508 Y108.251 E22.49145
G1 X230.884 Y108.428 E22.50527
G1 X231.161 Y108.564 E22.51553
G1 X231.528 Y108.75 E22.52922
G1 X231.965 Y108.985 E22.54572
G1 X232.3 Y109.175 E22.55853
G1 X232.634 Y109.372 E22.57143
G1 X233.033 Y109.618 E22.58702
G1 X233.471 Y109.904 E22.60442
G1 X233.768 Y110.108 E22.6164
G1 X234.061 Y110.316 E22.62835
G1 X234.435 Y110.592 E22.64381
G1 X234.83 Y110.898 E22.66043
G1 X235.098 Y111.116 E22.67192
G1 X235.377 Y111.351 E22.68405
G1 X235.753 Y111.679 E22.70065
G1 X236.177 Y112.07 E22.71983
G1 X236.436 Y112.322 E22.73185
G1 X236.646 Y112.532 E22.74173
G1 X236.954 Y112.849 E22.75643
G1 X237.338 Y113.266 E22.77528
G1 X237.585 Y113.549 E22.78778
G1 X237.79 Y113.791 E22.79833
G1 X238.066 Y114.127 E22.81279
G1 X238.355 Y114.495 E22.82835
G1 X238.577 Y114.791 E22.84066
G1 X238.813 Y115.119 E22.8541
G1 X239.076 Y115.499 E22.86947
G1 X239.389 Y115.979 E22.88853
G1 X239.595 Y116.314 E22.90161
G1 X239.748 Y116.569 E22.9115
G1 X239.973 Y116.959 E22.92647
G1 X240.223 Y117.419 E22.94389
G1 X240.383 Y117.731 E22.95555
G1 X240.532 Y118.032 E22.96672
G1 X240.728 Y118.446 E22.98195
G1 X240.954 Y118.958 E23.00057
G1 X241.105 Y119.326 E23.0138
G1 X241.227 Y119.639 E23.02497
G1 X241.378 Y120.043 E23.03932
G1 X241.562 Y120.577 E23.0581
G1 X241.677 Y120.943 E23.07086
G1 X241.765 Y121.238 E23.0811
G1 X241.88 Y121.645 E23.09517
G1 X242.01 Y122.155 E23.11267
G1 X242.103 Y122.56 E23.12649
G1 X242.178 Y122.911 E23.13843
G1 X242.258 Y123.323 E23.15239
G1 X242.348 Y123.86 E23.1705
G1 X242.405 Y124.263 E23.18404
G1 X242.443 Y124.562 E23.19406
G1 X242.488 Y124.962 E23.20745
G1 X242.551 Y125.891 E23.23842
G1 X242.597 Y127.794 E23.30173
G1 X242.6 Y128.05 E23.31025
G1 X242.6 Y146.587 E23.92679
G1 X242.599 Y146.739 E23.93185
G1 X242.571 Y148.697 E23.99698
G1 X242.571 Y151.383 E24.08631
G1 X242.599 Y153.352 E24.15181
G1 X242.6 Y153.503 E24.15683
G1 X242.6 Y171.95 E24.77038
G1 X242.598 Y172.167 E24.7776
G1 X242.563 Y173.876 E24.83445
G1 X242.521 Y174.624 E24.85937
G1 X242.471 Y175.171 E24.87764
G1 X242.414 Y175.664 E24.89415
G1 X242.354 Y176.096 E24.90865
G1 X242.265 Y176.635 E24.92682
G1 X242.19 Y177.026 E24.94006
G1 X242.123 Y177.347 E24.95097
G1 X242.032 Y177.753 E24.96481
G1 X241.9 Y178.279 E24.98285
G1 X241.795 Y178.656 E24.99586
G1 X241.702 Y178.971 E25.00679
G1 X241.569 Y179.397 E25.02163
G1 X241.406 Y179.879 E25.03855
G1 X241.278 Y180.229 E25.05095
G1 X241.14 Y180.587 E25.06371
G1 X240.975 Y180.992 E25.07826
G1 X240.754 Y181.495 E25.09653
G1 X240.579 Y181.868 E25.11023
G1 X240.434 Y182.166 E25.12125
G1 X240.242 Y182.544 E25.13536
G1 X240.008 Y182.979 E25.15178
G1 X239.824 Y183.303 E25.16418
G1 X239.632 Y183.627 E25.1767
G1 X239.385 Y184.028 E25.19237
G1 X239.09 Y184.481 E25.21035
G1 X238.891 Y184.77 E25.22202
G1 X238.689 Y185.054 E25.23361
G1 X238.407 Y185.436 E25.2494
G1 X238.114 Y185.814 E25.26531
G1 X237.896 Y186.083 E25.27683
G1 X237.655 Y186.37 E25.28929
G1 X237.338 Y186.734 E25.30534
G1 X236.951 Y187.155 E25.32436
G1 X236.688 Y187.426 E25.33692
G1 X236.468 Y187.646 E25.34727
G1 X236.151 Y187.954 E25.36197
G1 X235.734 Y188.338 E25.38083
G1 X235.451 Y188.585 E25.39332
G1 X235.209 Y188.79 E25.40387
G1 X234.873 Y189.066 E25.41833
G1 X234.505 Y189.355 E25.43389
G1 X234.209 Y189.577 E25.4462
G1 X233.877 Y189.816 E25.45981
G1 X233.498 Y190.078 E25.47513
G1 X233.03 Y190.384 E25.49373
G1 X232.694 Y190.591 E25.50686
G1 X232.431 Y190.748 E25.51704
G1 X232.041 Y190.973 E25.53202
G1 X231.564 Y191.232 E25.55007
G1 X231.231 Y191.402 E25.56251
G1 X230.935 Y191.547 E25.57347
G1 X230.543 Y191.732 E25.58789
G1 X230.034 Y191.956 E25.60638
G1 X229.665 Y192.107 E25.61964
G1 X229.369 Y192.223 E25.63022
G1 X228.958 Y192.377 E25.64482
G1 X228.422 Y192.562 E25.66367
G1 X228.063 Y192.675 E25.67619
G1 X227.762 Y192.765 E25.68664
G1 X227.355 Y192.88 E25.70071
G1 X226.845 Y193.01 E25.71821
G1 X226.44 Y193.103 E25.73203
G1 X226.089 Y193.178 E25.74397
G1 X225.677 Y193.258 E25.75793
G1 X225.14 Y193.348 E25.77604
G1 X224.737 Y193.405 E25.78958
G1 X224.432 Y193.443 E25.7998
G1 X224.03 Y193.488 E25.81326
G1 X223.107 Y193.551 E25.84403
G1 X221.206 Y193.597 E25.90727
G1 X220.95 Y193.6 E25.91579
G1 X79.021 Y193.6 E30.63637
