;FLAVOR:Marlin
;TIME:21671
;Filament used: 24.635m
;Layer height: 0.2
;MINX:19
;MINY:73.356
;MINZ:0.2
;MAXX:281
;MAXY:226.621
;MAXZ:5.2
;Generated with Cura_SteamEngine 4.4.1
M140 S60
M105
M190 S60
M104 S200
M105
M109 S200
M82 ;absolute extrusion mode
M201 X500.00 Y500.00 Z100.00 E5000.00 ;Setup machine max acceleration
M203 X500.00 Y500.00 Z10.00 E50.00 ;Setup machine max feedrate
M204 P500.00 R1000.00 T500.00 ;Setup Print/Retract/Travel acceleration
M205 X8.00 Y8.00 Z0.40 E5.00 ;Setup Jerk
M220 S100 ;Reset Feedrate
M221 S100 ;Reset Flowrate

G28 ;Home
M420 S1 Z2 ;Enable ABL using saved Mesh and Fade Height

G92 E0 ;Reset Extruder
G1 Z2.0 F3000 ;Move Z Axis up
G1 X10.1 Y20 Z0.28 F5000.0 ;Move to start position
G1 X10.1 Y200.0 Z0.28 F1500.0 E15 ;Draw the first line
G1 X10.4 Y200.0 Z0.28 F5000.0 ;Move to side a little
G1 X10.4 Y20 Z0.28 F1500.0 E30 ;Draw the second line
G92 E0 ;Reset Extruder
G1 Z2.0 F3000 ;Move Z Axis up

G92 E0
G92 E0
G1 F1500 E-1.4
;LAYER_COUNT:25
;LAYER:0
M107
G1 F300 Z0.4
G0 F6000 X28.962 Y74.398 Z0.4
;TYPE:SKIRT
G1 F300 Z0.2
G1 F1500 E0
G1 F1200 X29.278 Y74.28 E0.01122
G1 X29.545 Y74.185 E0.02064
G1 X30.733 Y73.837 E0.06182
G1 X31.076 Y73.757 E0.07353
G1 X31.363 Y73.694 E0.08331
G1 X31.626 Y73.64 E0.09224
G1 X32.892 Y73.456 E0.13479
G1 X33.251 Y73.425 E0.14677
G1 X33.97 Y73.386 E0.17072
G1 X35.326 Y73.358 E0.21583
G1 X35.553 Y73.356 E0.22338
G1 X264.793 Y73.356 E7.84793
G1 X264.94 Y73.357 E7.85282
G1 X265.313 Y73.362 E7.86523
G1 X265.712 Y73.375 E7.87851
G1 X266.638 Y73.421 E7.90934
G1 X267.572 Y73.507 E7.94054
G1 X268.204 Y73.612 E7.96185
G1 X268.618 Y73.693 E7.97588
G1 X269.019 Y73.779 E7.98952
G1 X269.279 Y73.84 E7.9984
G1 X270.44 Y74.181 E8.03865
G1 X270.742 Y74.288 E8.04931
G1 X271.068 Y74.409 E8.06087
G1 X271.36 Y74.523 E8.0713
G1 X272.481 Y75.035 E8.11229
G1 X272.808 Y75.207 E8.12458
G1 X273.107 Y75.37 E8.1359
G1 X273.326 Y75.494 E8.14427
G1 X274.345 Y76.148 E8.18454
G1 X274.658 Y76.374 E8.19739
G1 X274.932 Y76.578 E8.20875
G1 X275.141 Y76.739 E8.21752
G1 X276.064 Y77.535 E8.25806
G1 X276.317 Y77.779 E8.26975
G1 X276.551 Y78.011 E8.28071
G1 X276.76 Y78.225 E8.29066
G1 X277.615 Y79.212 E8.33409
G1 X277.82 Y79.479 E8.34529
G1 X277.97 Y79.679 E8.3536
G1 X278.145 Y79.918 E8.36345
G1 X278.855 Y81.02 E8.40706
G1 X279.029 Y81.329 E8.41885
G1 X279.168 Y81.584 E8.42851
G1 X279.306 Y81.845 E8.43833
G1 X279.83 Y82.99 E8.48021
G1 X279.947 Y83.29 E8.49092
G1 X280.057 Y83.583 E8.50133
G1 X280.16 Y83.871 E8.5115
G1 X280.514 Y85.076 E8.55328
G1 X280.608 Y85.479 E8.56704
G1 X280.675 Y85.785 E8.57746
G1 X280.722 Y86.016 E8.5853
G1 X280.904 Y87.285 E8.62794
G1 X280.932 Y87.617 E8.63902
G1 X280.951 Y87.879 E8.64776
G1 X280.97 Y88.194 E8.65825
G1 X280.985 Y88.531 E8.66947
G1 X280.995 Y88.869 E8.68072
G1 X281 Y89.194 E8.69153
G1 X281 Y97.03 E8.95216
G1 X280.998 Y97.231 E8.95884
G1 X280.966 Y98.978 E9.01696
G1 X280.953 Y99.345 E9.02917
G1 X280.925 Y99.887 E9.04722
G1 X280.905 Y100.193 E9.05742
G1 X280.883 Y100.469 E9.06663
G1 X280.857 Y100.753 E9.07612
G1 X280.819 Y101.112 E9.08812
G1 X280.795 Y101.316 E9.09495
G1 X280.708 Y102.013 E9.11832
G1 X280.667 Y102.314 E9.12842
G1 X280.615 Y102.654 E9.13986
G1 X280.56 Y102.976 E9.15073
G1 X280.498 Y103.314 E9.16216
G1 X280.462 Y103.502 E9.16852
G1 X280.328 Y104.167 E9.19108
G1 X280.271 Y104.435 E9.2002
G1 X280.205 Y104.725 E9.21009
G1 X280.12 Y105.071 E9.22194
G1 X280.032 Y105.407 E9.23349
G1 X279.987 Y105.575 E9.23928
G1 X279.789 Y106.285 E9.26379
G1 X279.703 Y106.577 E9.27392
G1 X279.627 Y106.823 E9.28248
G1 X279.553 Y107.055 E9.29058
G1 X279.477 Y107.283 E9.29857
G1 X279.402 Y107.499 E9.30618
G1 X279.126 Y108.273 E9.33351
G1 X279.01 Y108.583 E9.34452
G1 X278.881 Y108.913 E9.3563
G1 X278.748 Y109.237 E9.36795
G1 X278.626 Y109.522 E9.37826
G1 X278.566 Y109.661 E9.3833
G1 X278.266 Y110.336 E9.40787
G1 X278.136 Y110.617 E9.41816
G1 X278.024 Y110.851 E9.42679
G1 X277.886 Y111.129 E9.43712
G1 X277.699 Y111.493 E9.45073
G1 X277.61 Y111.663 E9.45711
G1 X277.283 Y112.273 E9.48013
G1 X277.133 Y112.543 E9.4904
G1 X277.007 Y112.763 E9.49883
G1 X276.861 Y113.01 E9.50838
G1 X276.754 Y113.186 E9.51523
G1 X276.658 Y113.341 E9.52129
G1 X276.176 Y114.105 E9.55134
G1 X275.997 Y114.381 E9.56228
G1 X275.865 Y114.577 E9.57014
G1 X275.718 Y114.789 E9.57872
G1 X275.587 Y114.974 E9.58626
G1 X275.452 Y115.16 E9.5939
G1 X274.917 Y115.883 E9.62382
G1 X274.702 Y116.164 E9.63558
G1 X274.562 Y116.341 E9.64309
G1 X274.414 Y116.525 E9.65094
G1 X274.233 Y116.744 E9.66039
G1 X274.092 Y116.911 E9.66766
G1 X273.555 Y117.535 E9.69505
G1 X273.341 Y117.776 E9.70576
G1 X273.142 Y117.994 E9.71558
G1 X272.953 Y118.196 E9.72478
G1 X272.809 Y118.346 E9.7317
G1 X272.652 Y118.506 E9.73915
G1 X272.001 Y119.157 E9.76978
G1 X271.748 Y119.402 E9.78149
G1 X271.571 Y119.568 E9.78956
G1 X271.356 Y119.765 E9.79926
G1 X271.049 Y120.038 E9.81292
G1 X270.896 Y120.171 E9.81967
G1 X270.407 Y120.59 E9.84108
G1 X270.191 Y120.771 E9.85046
G1 X269.95 Y120.967 E9.86079
G1 X269.706 Y121.16 E9.87114
G1 X269.418 Y121.381 E9.88321
G1 X269.249 Y121.508 E9.89024
G1 X268.678 Y121.929 E9.91384
G1 X268.474 Y122.076 E9.9222
G1 X268.242 Y122.239 E9.93163
G1 X267.958 Y122.432 E9.94305
G1 X267.684 Y122.612 E9.95396
G1 X267.524 Y122.714 E9.96027
G1 X266.879 Y123.122 E9.98565
G1 X266.5 Y123.352 E10.0004
G1 X266.119 Y123.572 E10.01503
G1 X265.75 Y123.776 E10.02905
G1 X264.146 Y124.622 E10.08937
G1 X263.96 Y124.717 E10.09631
G1 X258.932 Y127.248 E10.28354
G1 X258.829 Y127.3 E10.28738
G1 X255.319 Y129.021 E10.4174
G1 X255.209 Y129.074 E10.42146
G1 X254.351 Y129.483 E10.45307
G1 X254.247 Y129.532 E10.4569
G1 X250.979 Y131.048 E10.57672
G1 X250.854 Y131.105 E10.58129
G1 X249.927 Y131.521 E10.61508
G1 X249.83 Y131.563 E10.6186
G1 X246.64 Y132.958 E10.7344
G1 X246.538 Y133.002 E10.73809
G1 X245.52 Y133.435 E10.77489
G1 X245.403 Y133.485 E10.77912
G1 X242.129 Y134.833 E10.89688
G1 X242.019 Y134.877 E10.90082
G1 X241.102 Y135.243 E10.93366
G1 X240.991 Y135.287 E10.93763
G1 X237.644 Y136.581 E11.05698
G1 X237.52 Y136.628 E11.06139
G1 X236.568 Y136.983 E11.09519
G1 X236.465 Y137.021 E11.09884
G1 X233.218 Y138.195 E11.21368
G1 X233.11 Y138.233 E11.21748
G1 X231.998 Y138.622 E11.25667
G1 X231.88 Y138.663 E11.26082
G1 X228.641 Y139.755 E11.37451
G1 X228.526 Y139.793 E11.37854
G1 X227.458 Y140.14 E11.41589
G1 X227.349 Y140.174 E11.41969
G1 X224.012 Y141.22 E11.536
G1 X223.891 Y141.257 E11.54021
G1 X222.884 Y141.56 E11.57518
G1 X222.773 Y141.593 E11.57904
G1 X219.439 Y142.558 E11.69448
G1 X219.325 Y142.591 E11.69842
G1 X218.245 Y142.891 E11.7357
G1 X218.129 Y142.922 E11.7397
G1 X214.731 Y143.826 E11.85665
G1 X214.612 Y143.857 E11.86074
G1 X213.628 Y144.107 E11.8945
G1 X213.512 Y144.136 E11.89848
G1 X210.033 Y144.98 E12.01755
G1 X209.919 Y145.007 E12.02145
G1 X208.968 Y145.227 E12.05391
G1 X208.851 Y145.253 E12.0579
G1 X205.363 Y146.02 E12.17668
G1 X205.255 Y146.044 E12.18036
G1 X204.252 Y146.254 E12.21444
G1 X204.119 Y146.281 E12.21896
G1 X200.679 Y146.957 E12.33556
G1 X200.567 Y146.978 E12.33935
G1 X199.469 Y147.182 E12.3765
G1 X199.345 Y147.204 E12.38069
G1 X195.183 Y147.928 E12.52119
G1 X195.072 Y147.947 E12.52494
G1 X150.308 Y155.26 E14.03353
G1 X147.707 Y155.723 E14.1214
G1 X145.257 Y156.231 E14.20462
G1 X142.831 Y156.806 E14.28755
G1 X140.374 Y157.462 E14.37213
G1 X137.946 Y158.184 E14.45638
G1 X135.558 Y158.968 E14.53998
G1 X133.212 Y159.814 E14.62292
G1 X130.88 Y160.729 E14.70624
G1 X128.528 Y161.731 E14.79127
G1 X126.266 Y162.77 E14.87406
G1 X123.992 Y163.893 E14.95842
G1 X121.764 Y165.074 E15.04229
G1 X119.59 Y166.305 E15.12538
G1 X117.438 Y167.606 E15.20902
G1 X115.289 Y168.99 E15.29404
G1 X113.242 Y170.392 E15.37656
G1 X111.204 Y171.872 E15.46033
G1 X109.224 Y173.4 E15.54352
G1 X107.262 Y175.004 E15.62781
G1 X105.333 Y176.673 E15.71265
G1 X103.51 Y178.343 E15.79488
G1 X101.681 Y180.118 E15.87965
G1 X99.934 Y181.909 E15.96286
G1 X98.232 Y183.761 E16.04652
G1 X96.586 Y185.652 E16.1299
G1 X94.967 Y187.623 E16.21474
G1 X93.435 Y189.6 E16.29793
G1 X91.963 Y191.614 E16.3809
G1 X90.529 Y193.7 E16.46509
G1 X89.143 Y195.84 E16.54989
G1 X87.858 Y197.953 E16.63215
G1 X86.618 Y200.128 E16.71542
G1 X85.409 Y202.396 E16.8009
G1 X84.344 Y204.535 E16.88037
G1 X78.225 Y217.236 E17.34928
G1 X78.16 Y217.369 E17.3542
G1 X77.832 Y218.027 E17.37866
G1 X77.481 Y218.675 E17.40317
G1 X77.144 Y219.251 E17.42536
G1 X76.387 Y220.38 E17.47057
G1 X76.247 Y220.563 E17.47824
G1 X75.941 Y220.944 E17.49449
G1 X75.703 Y221.228 E17.50681
G1 X74.802 Y222.182 E17.55046
G1 X74.261 Y222.69 E17.57514
G1 X73.215 Y223.557 E17.62033
G1 X72.993 Y223.719 E17.62947
G1 X72.366 Y224.144 E17.65466
G1 X71.959 Y224.4 E17.67066
G1 X70.921 Y224.977 E17.71016
G1 X70.724 Y225.073 E17.71744
G1 X70.279 Y225.278 E17.73374
G1 X69.836 Y225.47 E17.7498
G1 X68.589 Y225.923 E17.79393
G1 X68.363 Y225.99 E17.80177
G1 X67.949 Y226.104 E17.81605
G1 X67.505 Y226.217 E17.83129
G1 X66.377 Y226.442 E17.86954
G1 X66.171 Y226.472 E17.87647
G1 X65.616 Y226.539 E17.89506
G1 X65.212 Y226.577 E17.90856
G1 X63.904 Y226.621 E17.95209
G1 X63.192 Y226.603 E17.97577
G1 X62.316 Y226.546 E18.00497
G1 X62.041 Y226.517 E18.01417
G1 X61.653 Y226.469 E18.02717
G1 X61.314 Y226.421 E18.03856
G1 X61.2 Y226.405 E18.04239
G1 X60.471 Y226.294 E18.06691
G1 X60.329 Y226.271 E18.0717
G1 X59.508 Y226.135 E18.09938
G1 X59.224 Y226.084 E18.10897
G1 X58.809 Y226.004 E18.12303
G1 X58.681 Y225.979 E18.12737
G1 X57.979 Y225.835 E18.1512
G1 X57.818 Y225.8 E18.15668
G1 X57.007 Y225.621 E18.18431
G1 X56.721 Y225.554 E18.19408
G1 X56.251 Y225.437 E18.21019
G1 X56.139 Y225.409 E18.21403
G1 X55.52 Y225.248 E18.2353
G1 X55.371 Y225.208 E18.24043
G1 X54.506 Y224.97 E18.27027
G1 X54.228 Y224.889 E18.2799
G1 X53.846 Y224.773 E18.29318
G1 X53.728 Y224.737 E18.29728
G1 X53.038 Y224.519 E18.32135
G1 X52.894 Y224.472 E18.32639
G1 X52.112 Y224.213 E18.35379
G1 X51.819 Y224.112 E18.36409
G1 X51.389 Y223.956 E18.37931
G1 X51.285 Y223.917 E18.383
G1 X50.641 Y223.676 E18.40587
G1 X50.483 Y223.616 E18.41149
G1 X49.697 Y223.308 E18.43957
G1 X49.46 Y223.212 E18.44808
G1 X49.004 Y223.021 E18.46452
G1 X48.852 Y222.956 E18.47002
G1 X48.252 Y222.694 E18.49179
G1 X48.124 Y222.637 E18.49646
G1 X47.376 Y222.299 E18.52376
G1 X47.123 Y222.181 E18.53304
G1 X46.657 Y221.956 E18.55025
G1 X46.528 Y221.892 E18.55504
G1 X45.957 Y221.607 E18.57627
G1 X45.823 Y221.539 E18.58127
G1 X45.087 Y221.159 E18.60882
G1 X44.839 Y221.027 E18.61816
G1 X44.411 Y220.792 E18.6344
G1 X44.285 Y220.722 E18.63919
G1 X43.658 Y220.367 E18.66316
G1 X43.533 Y220.295 E18.66796
G1 X42.858 Y219.901 E18.69395
G1 X42.597 Y219.744 E18.70408
G1 X42.206 Y219.501 E18.71939
G1 X42.114 Y219.443 E18.72301
G1 X41.53 Y219.072 E18.74602
G1 X41.397 Y218.986 E18.75129
G1 X40.703 Y218.531 E18.77889
G1 X40.47 Y218.375 E18.78822
G1 X40.047 Y218.082 E18.80533
G1 X39.93 Y217.999 E18.8101
G1 X39.402 Y217.623 E18.83166
G1 X39.276 Y217.532 E18.83683
G1 X38.619 Y217.05 E18.86393
G1 X38.41 Y216.892 E18.87265
G1 X38.017 Y216.589 E18.88915
G1 X37.896 Y216.495 E18.89425
G1 X37.373 Y216.08 E18.91646
G1 X37.254 Y215.984 E18.92154
G1 X36.628 Y215.473 E18.94842
G1 X36.406 Y215.287 E18.95805
G1 X35.974 Y214.915 E18.97701
G1 X35.874 Y214.828 E18.98142
G1 X35.432 Y214.438 E19.00103
G1 X35.322 Y214.34 E19.00593
G1 X34.691 Y213.768 E19.03425
G1 X34.481 Y213.572 E19.04381
G1 X34.124 Y213.231 E19.06023
G1 X34.026 Y213.137 E19.06474
G1 X33.547 Y212.668 E19.08704
G1 X33.444 Y212.566 E19.09186
G1 X32.878 Y211.997 E19.11856
G1 X32.67 Y211.781 E19.12853
G1 X32.329 Y211.419 E19.14507
G1 X32.256 Y211.341 E19.14862
G1 X31.796 Y210.843 E19.17117
G1 X31.674 Y210.708 E19.17722
G1 X31.12 Y210.088 E19.20488
G1 X30.926 Y209.865 E19.21471
G1 X30.634 Y209.52 E19.22974
G1 X30.571 Y209.445 E19.233
G1 X30.118 Y208.9 E19.25657
G1 X30.006 Y208.764 E19.26243
G1 X29.508 Y208.145 E19.28885
G1 X29.339 Y207.929 E19.29798
G1 X29.028 Y207.522 E19.31501
G1 X28.944 Y207.411 E19.31964
G1 X28.548 Y206.879 E19.3417
G1 X28.46 Y206.76 E19.34662
G1 X27.973 Y206.087 E19.37425
G1 X27.807 Y205.85 E19.38388
G1 X27.534 Y205.451 E19.39996
G1 X27.469 Y205.355 E19.40381
G1 X27.077 Y204.769 E19.42726
G1 X26.983 Y204.626 E19.43295
G1 X26.573 Y203.992 E19.45807
G1 X26.419 Y203.747 E19.46769
G1 X26.125 Y203.265 E19.48647
G1 X26.057 Y203.152 E19.49086
G1 X25.74 Y202.618 E19.51151
G1 X25.673 Y202.503 E19.51594
G1 X25.255 Y201.779 E19.54374
G1 X25.102 Y201.506 E19.55415
G1 X24.866 Y201.069 E19.57067
G1 X24.811 Y200.966 E19.57455
G1 X24.512 Y200.398 E19.5959
G1 X24.438 Y200.253 E19.60132
G1 X24.041 Y199.471 E19.63049
G1 X23.92 Y199.225 E19.6396
G1 X23.746 Y198.86 E19.65305
G1 X23.687 Y198.736 E19.65762
G1 X23.388 Y198.088 E19.68136
G1 X23.327 Y197.953 E19.68628
G1 X22.986 Y197.187 E19.71417
G1 X22.871 Y196.919 E19.72387
G1 X22.691 Y196.484 E19.73953
G1 X22.646 Y196.374 E19.74348
G1 X22.382 Y195.716 E19.76706
G1 X22.313 Y195.54 E19.77335
G1 X22.03 Y194.798 E19.79976
G1 X21.939 Y194.55 E19.80855
G1 X21.78 Y194.101 E19.82439
G1 X21.735 Y193.973 E19.82891
G1 X21.507 Y193.303 E19.85244
G1 X21.461 Y193.162 E19.85738
G1 X21.204 Y192.372 E19.88501
G1 X21.113 Y192.081 E19.89515
G1 X20.99 Y191.664 E19.90961
G1 X20.956 Y191.545 E19.91373
G1 X20.764 Y190.866 E19.9372
G1 X20.728 Y190.736 E19.94168
G1 X20.521 Y189.968 E19.96814
G1 X20.444 Y189.666 E19.9785
G1 X20.32 Y189.148 E19.99622
G1 X20.294 Y189.036 E20.00004
G1 X20.146 Y188.388 E20.02215
G1 X20.11 Y188.225 E20.0277
G1 X19.939 Y187.42 E20.05507
G1 X19.889 Y187.167 E20.06365
G1 X19.807 Y186.731 E20.07841
G1 X19.779 Y186.581 E20.08348
G1 X19.657 Y185.879 E20.10718
G1 X19.633 Y185.731 E20.11217
G1 X19.502 Y184.911 E20.13979
G1 X19.462 Y184.638 E20.14896
G1 X19.401 Y184.183 E20.16423
G1 X19.381 Y184.025 E20.16953
G1 X19.301 Y183.355 E20.19197
G1 X19.285 Y183.22 E20.19649
G1 X19.192 Y182.35 E20.2256
G1 X19.166 Y182.075 E20.23478
G1 X19.136 Y181.707 E20.24706
G1 X19.122 Y181.515 E20.25347
G1 X19.048 Y180.357 E20.29206
G1 X19.028 Y179.873 E20.30817
G1 X19.002 Y178.562 E20.35178
G1 X19 Y178.344 E20.35903
G1 X19 Y89.563 E23.3119
G1 X19.001 Y89.407 E23.31709
G1 X19.011 Y88.7 E23.34061
G1 X19.021 Y88.371 E23.35156
G1 X19.03 Y88.167 E23.35835
G1 X19.06 Y87.708 E23.37365
G1 X19.098 Y87.267 E23.38837
G1 X19.268 Y86.067 E23.42868
G1 X19.331 Y85.75 E23.43943
G1 X19.413 Y85.372 E23.45229
G1 X19.478 Y85.096 E23.46173
G1 X19.825 Y83.922 E23.50244
G1 X19.967 Y83.524 E23.5165
G1 X20.084 Y83.21 E23.52764
G1 X20.176 Y82.975 E23.53604
G1 X20.687 Y81.857 E23.57692
G1 X20.834 Y81.578 E23.58741
G1 X20.986 Y81.301 E23.59792
G1 X21.131 Y81.044 E23.60773
G1 X21.807 Y79.99 E23.64938
G1 X22.058 Y79.644 E23.6636
G1 X22.247 Y79.391 E23.6741
G1 X22.381 Y79.217 E23.68141
G1 X23.189 Y78.282 E23.72251
G1 X23.453 Y78.009 E23.73514
G1 X23.726 Y77.736 E23.74798
G1 X23.92 Y77.549 E23.75694
G1 X24.81 Y76.779 E23.79608
G1 X25.078 Y76.571 E23.80737
G1 X25.323 Y76.386 E23.81758
G1 X25.562 Y76.211 E23.82743
G1 X26.657 Y75.505 E23.87076
G1 X26.985 Y75.32 E23.88329
G1 X27.254 Y75.173 E23.89348
G1 X27.487 Y75.05 E23.90225
G1 X28.619 Y74.532 E23.94365
G1 X28.962 Y74.398 E23.9559
G0 F6000 X29.108 Y74.771
G1 F1200 X29.412 Y74.657 E23.9667
G1 X29.679 Y74.562 E23.97613
G1 X30.824 Y74.226 E24.01581
G1 X31.167 Y74.146 E24.02753
G1 X31.443 Y74.086 E24.03692
G1 X31.706 Y74.032 E24.04585
G1 X32.926 Y73.854 E24.08686
G1 X33.285 Y73.823 E24.09884
G1 X33.978 Y73.786 E24.12193
G1 X35.334 Y73.758 E24.16704
G1 X35.553 Y73.756 E24.17432
G1 X264.793 Y73.756 E31.79887
G1 X264.935 Y73.757 E31.8036
G1 X265.308 Y73.762 E31.816
G1 X265.692 Y73.774 E31.82878
G1 X266.618 Y73.82 E31.85962
G1 X267.535 Y73.906 E31.89025
G1 X268.127 Y74.004 E31.91021
G1 X268.541 Y74.085 E31.92424
G1 X268.927 Y74.168 E31.93737
G1 X269.187 Y74.229 E31.94626
G1 X270.306 Y74.558 E31.98505
G1 X270.608 Y74.665 E31.99571
G1 X270.923 Y74.782 E32.00688
G1 X271.215 Y74.896 E32.01731
G1 X272.295 Y75.389 E32.05679
G1 X272.622 Y75.561 E32.06908
G1 X272.91 Y75.718 E32.07999
G1 X273.129 Y75.842 E32.08836
G1 X274.111 Y76.472 E32.12717
G1 X274.424 Y76.698 E32.14001
G1 X274.688 Y76.895 E32.15097
G1 X274.897 Y77.056 E32.15974
